img/benefits-images/bg-num-3.svg

<svg width="112" height="232" viewBox="0 0 112 232" fill="none" xmlns="http://www.w3.org/2000/svg">
<path d="M55.9213 231.52C43.6013 231.52 33.3346 229.187 25.1213 224.52C16.9079 219.853 10.7479 213.133 6.64125 204.36C2.53458 195.587 0.481251 185.227 0.481251 173.28V165.72H30.1613C30.1613 166.467 30.1613 167.307 30.1613 168.24C30.1613 168.987 30.1613 169.827 30.1613 170.76C30.3479 177.48 31.0946 183.547 32.4013 188.96C33.8946 194.373 36.4146 198.667 39.9613 201.84C43.6946 205.013 49.0146 206.6 55.9213 206.6C63.2013 206.6 68.7079 204.92 72.4413 201.56C76.1746 198.013 78.6946 193.067 80.0013 186.72C81.3079 180.373 81.9613 173.093 81.9613 164.88C81.9613 152.933 79.7213 143.227 75.2413 135.76C70.9479 128.107 63.2946 123.907 52.2813 123.16C51.7213 122.973 50.9746 122.88 50.0413 122.88C49.2946 122.88 48.6413 122.88 48.0813 122.88V92.92C48.6413 92.92 49.2946 92.92 50.0413 92.92C50.7879 92.92 51.4413 92.92 52.0013 92.92C62.6413 92.5467 70.2946 89.7467 74.9613 84.52C79.6279 79.2933 81.9613 70.6133 81.9613 58.48C81.9613 48.2133 80.1879 40 76.6413 33.84C73.2813 27.68 66.4679 24.6 56.2013 24.6C45.9346 24.6 39.1213 28.0533 35.7613 34.96C32.4013 41.68 30.5346 50.36 30.1613 61C30.1613 61.7467 30.1613 62.5867 30.1613 63.52C30.1613 64.2667 30.1613 65.0133 30.1613 65.76H0.481251V58.2C0.481251 46.0667 2.53458 35.7067 6.64125 27.12C10.7479 18.5333 16.9079 11.9067 25.1213 7.23998C33.5213 2.57332 43.8813 0.239991 56.2013 0.239991C68.7079 0.239991 79.0679 2.57332 87.2813 7.23998C95.4946 11.9067 101.655 18.6267 105.761 27.4C109.868 35.9867 111.921 46.3467 111.921 58.48C111.921 72.1067 108.935 83.0267 102.961 91.24C97.1746 99.4533 89.3346 105.053 79.4413 108.04C86.3479 110.093 92.1346 113.64 96.8013 118.68C101.655 123.72 105.388 130.16 108.001 138C110.615 145.653 111.921 154.613 111.921 164.88C111.921 178.32 110.055 190.08 106.321 200.16C102.588 210.053 96.6146 217.8 88.4013 223.4C80.1879 228.813 69.3613 231.52 55.9213 231.52Z" fill="#F2F2F2"/>
</svg>

<svg width="112" height="232" fill="none" xmlns="http://www.w3.org/2000/svg"><path d="M55.921 231.52c-12.32 0-22.586-2.333-30.8-7-8.213-4.667-14.373-11.387-18.48-20.16-4.106-8.773-6.16-19.133-6.16-31.08v-7.56h29.68v5.04c.187 6.72.934 12.787 2.24 18.2 1.494 5.413 4.014 9.707 7.56 12.88 3.734 3.173 9.054 4.76 15.96 4.76 7.28 0 12.787-1.68 16.52-5.04 3.734-3.547 6.254-8.493 7.56-14.84 1.307-6.347 1.96-13.627 1.96-21.84 0-11.947-2.24-21.653-6.72-29.12-4.293-7.653-11.946-11.853-22.96-12.6-.56-.187-1.306-.28-2.24-.28h-1.96V92.92h3.92c10.64-.373 18.294-3.173 22.96-8.4 4.667-5.227 7-13.907 7-26.04 0-10.267-1.773-18.48-5.32-24.64-3.36-6.16-10.173-9.24-20.44-9.24-10.266 0-17.08 3.453-20.44 10.36-3.36 6.72-5.226 15.4-5.6 26.04v4.76H.481V58.2c0-12.133 2.054-22.493 6.16-31.08 4.107-8.587 10.267-15.213 18.48-19.88 8.4-4.667 18.76-7 31.08-7 12.507 0 22.867 2.333 31.08 7 8.214 4.667 14.374 11.387 18.48 20.16 4.107 8.587 6.16 18.947 6.16 31.08 0 13.627-2.986 24.547-8.96 32.76-5.786 8.213-13.626 13.813-23.52 16.8 6.907 2.053 12.694 5.6 17.36 10.64 4.854 5.04 8.587 11.48 11.2 19.32 2.614 7.653 3.92 16.613 3.92 26.88 0 13.44-1.866 25.2-5.6 35.28-3.733 9.893-9.706 17.64-17.92 23.24-8.213 5.413-19.04 8.12-32.48 8.12z" fill="#F2F2F2"/></svg>2667 30.1613 65.0133 30.1613 65.76H0.481251V58.2C0.481251 46.0667 2.53458 35.7067 6.64125 27.12C10.7479 18.5333 16.9079 11.9067 25.1213 7.23998C33.5213 2.57332 43.8813 0.239991 56.2013 0.239991C68.7079 0.239991 79.0679 2.57332 87.2813 7.23998C95.4946 11.9067 101.655 18.6267 105.761 27.4C109.868 35.9867 111.921 46.3467 111.921 58.48C111.921 72.1067 108.935 83.0267 102.961 91.24C97.1746 99.4533 89.3346 105.053 79.4413 108.04C86.3479 110.093 92.1346 113.64 96.8013 118.68C101.655 123.72 105.388 130.16 108.001 138C110.615 145.653 111.921 154.613 111.921 164.88C111.921 178.32 110.055 190.08 106.321 200.16C102.588 210.053 96.6146 217.8 88.4013 223.4C80.1879 228.813 69.3613 231.52 55.9213 231.52Z" fill="#F2F2F2"/>
</svg>
